Gurmukhi/0A2F.svg

<svg enable-background="new 0 0 336 592" viewBox="0 0 336 592" xmlns="http://www.w3.org/2000/svg"><path d="m144.67804 362.824341c-17.599312-3.66449-29.775017-14.568695-40.229371-27.689911-7.073341-8.877747-12.73381-18.677124-17.174087-29.198822-1.56472-3.707794-1.329544-6.236481 1.289398-9.415344 8.835426-10.724518 16.594116-22.115662 19.461205-36.116089 2.948936-14.400101-.151467-27.688584-7.026101-40.384812-1.359268-2.510299-3.337577-2.89096-5.80326-2.879257-9.163803.043503-18.331154-.123138-27.490319.087372-3.578468.082245-5.571148-1.17662-6.658954-4.547317-1.17458-3.639542-2.778847-7.13852-4.017128-10.759873-1.601059-4.682251-.288742-6.704971 4.65908-6.753052 11.984944-.116439 23.968754.125229 35.958546.06575 53.983261-.267776 107.968628-.137008 161.953201-.097381 9.325775.006851 18.65149.360733 27.977021.350403 2.572204-.002854 3.978363.789001 4.812255 3.240661 1.339112 3.937088 3.072297 7.740311 4.407013 11.678696 1.613739 4.761688.334168 6.620926-4.619018 6.684463-8.32959.106858-16.670197.271592-24.989014-.042343-4.887146-.184433-6.181244 1.63649-6.166901 6.355973.161103 52.98442.12851 105.969406.148865 158.954269.004181 10.860657-.603821 10.471252-10.62442 6.88089-12.943787-4.637665-17.074356-12.18396-16.212662-25.985474 1.409287-22.571808.270172-45.297302.450318-67.956024.035492-4.46582-1.075501-6.199554-5.856293-6.015961-9.483353.364136-18.995468.290925-28.485474.028717-4.24208-.117187-5.508072 1.431244-5.350662 5.497651.438614 11.329864-.55249 22.605499-1.787857 33.863495-2.419006 22.044586-16.106689 34.533233-38.233185 34.703918-3.32077.025604-6.644134-.280731-10.392196-.550598m52.82196-145.661865c-25.054901 0-50.109802 0-75.410515 0 .557564 3.852813 2.461006 6.253738 3.688698 8.932052 8.216003 17.923691 11.938736 36.287247 5.443863 55.632706-3.443588 10.256988-9.424294 19.04071-16.10466 27.415344-1.282639 1.607941-3.228081 3.085907-1.822876 5.679993 5.461441 10.082062 11.75769 19.470337 22.346542 24.856354 12.870346 6.546508 27.629502.293548 31.810868-13.416626 1.354919-4.442627 2.022949-9.034943 2.409698-13.717591.866119-10.486938-.018387-20.959137.228851-31.434112.170517-7.225006 4.25322-11.43805 11.380997-11.447937 15.822113-.021942 31.645844-.132263 47.465363.07077 4.262832.054687 5.907287-1.115295 5.832473-5.607758-.230133-13.819595-.237442-27.648834.029404-41.467376.087692-4.542023-1.599884-5.698365-5.822067-5.598954-10.154068.239106-20.317169.093705-31.476639.103135z"/></svg>

<svg version="1.1" id="Layer_1" xmlns="http://www.w3.org/2000/svg" xmlns:xlink="http://www.w3.org/1999/xlink" x="0px" y="0px"
	 width="100%" viewBox="0 0 336 592" enable-background="new 0 0 336 592" xml:space="preserve">
<path fill="#000000" opacity="1.000000" stroke="none" 
	d="
M144.678040,362.824341 
	C127.078728,359.159851 114.903023,348.255646 104.448669,335.134430 
	C97.375328,326.256683 91.714859,316.457306 87.274582,305.935608 
	C85.709862,302.227814 85.945038,299.699127 88.563980,296.520264 
	C97.399406,285.795746 105.158096,274.404602 108.025185,260.404175 
	C110.974121,246.004074 107.873718,232.715591 100.999084,220.019363 
	C99.639816,217.509064 97.661507,217.128403 95.195824,217.140106 
	C86.032021,217.183609 76.864670,217.016968 67.705505,217.227478 
	C64.127037,217.309723 62.134357,216.050858 61.046551,212.680161 
	C59.871971,209.040619 58.267704,205.541641 57.029423,201.920288 
	C55.428364,197.238037 56.740681,195.215317 61.688503,195.167236 
	C73.673447,195.050797 85.657257,195.292465 97.647049,195.232986 
	C151.630310,194.965210 205.615677,195.095978 259.600250,195.135605 
	C268.926025,195.142456 278.251740,195.496338 287.577271,195.486008 
	C290.149475,195.483154 291.555634,196.275009 292.389526,198.726669 
	C293.728638,202.663757 295.461823,206.466980 296.796539,210.405365 
	C298.410278,215.167053 297.130707,217.026291 292.177521,217.089828 
	C283.847931,217.196686 275.507324,217.361420 267.188507,217.047485 
	C262.301361,216.863052 261.007263,218.683975 261.021606,223.403458 
	C261.182709,276.387878 261.150116,329.372864 261.170471,382.357727 
	C261.174652,393.218384 260.566650,392.828979 250.546051,389.238617 
	C237.602264,384.600952 233.471695,377.054657 234.333389,363.253143 
	C235.742676,340.681335 234.603561,317.955841 234.783707,295.297119 
	C234.819199,290.831299 233.708206,289.097565 228.927414,289.281158 
	C219.444061,289.645294 209.931946,289.572083 200.441940,289.309875 
	C196.199860,289.192688 194.933868,290.741119 195.091278,294.807526 
	C195.529892,306.137390 194.538788,317.413025 193.303421,328.671021 
	C190.884415,350.715607 177.196732,363.204254 155.070236,363.374939 
	C151.749466,363.400543 148.426102,363.094208 144.678040,362.824341 
M197.500000,217.162476 
	C172.445099,217.162476 147.390198,217.162476 122.089485,217.162476 
	C122.647049,221.015289 124.550491,223.416214 125.778183,226.094528 
	C133.994186,244.018219 137.716919,262.381775 131.222046,281.727234 
	C127.778458,291.984222 121.797752,300.767944 115.117386,309.142578 
	C113.834747,310.750519 111.889305,312.228485 113.294510,314.822571 
	C118.755951,324.904633 125.052200,334.292908 135.641052,339.678925 
	C148.511398,346.225433 163.270554,339.972473 167.451920,326.262299 
	C168.806839,321.819672 169.474869,317.227356 169.861618,312.544708 
	C170.727737,302.057770 169.843231,291.585571 170.090469,281.110596 
	C170.260986,273.885590 174.343689,269.672546 181.471466,269.662659 
	C197.293579,269.640717 213.117310,269.530396 228.936829,269.733429 
	C233.199661,269.788116 234.844116,268.618134 234.769302,264.125671 
	C234.539169,250.306076 234.531860,236.476837 234.798706,222.658295 
	C234.886398,218.116272 233.198822,216.959930 228.976639,217.059341 
	C218.822571,217.298447 208.659470,217.153046 197.500000,217.162476 
z"/>
</svg>
